!!!COM: Mozart	
!!!OTL: Zehn Variationen in G, uber die Ariette 'Unser dummer Pobel meint' aus dem Singspiel 'Die Pilgrime von Mekka'
!!!Variation: Variation 9 a
!!!COM: Mozart
**function	**harm	**kern	**kern
*M4/4	*M4/4	*staff2	*staff1
*G:	*G:	*clefF4	*clefG2
*tb96	*	*k[f#]	*k[f#]
*	*	*met(c|)	*met(c|)
*	*	*M2/2	*M2/2
*	*	*G:	*G:
=-	=-	=-	=-
1T	1I	([4g	2GG 2G
.	.	32gLLL]	.
.	.	32b	.
.	.	32dd	.
.	.	32ggJJ	.
.	.	24ddL	.
.	.	24b	.
.	.	24gJJ)	.
.	.	8bb	4r
.	.	16.r	.
.	.	32g	.
.	.	(8.gL	4GG 4G
.	.	32f#LL	.
.	.	32gJJJ)	.
=	=	=162	=162
1T	1V6	[4f#	2FF# 2F#
.	.	32f#LLL]	.
.	.	32a	.
.	.	32dd	.
.	.	32aJJ	.
.	.	32ff#LL	.
.	.	32dd	.
.	.	32aa	.
.	.	32ff#JJJ	.
.	.	8ddd	4r
.	.	16.r	.
.	.	32f#	.
.	.	(8.f#L	4FF# 4F#
.	.	32eLL	.
.	.	32f#JJJ)	.
=	=	=163	=163
2T	2vi	8e	4EE 4E
.	.	(4eee	.
.	.	.	4r
.	.	16dddLL	.
.	.	16ccc#JJ)	.
2P	2ii7	(16bbLL	2A 2e 2g
.	.	16aa	.
.	.	16gg#	.
.	.	16aaJJ	.
.	.	16bb-LL	.
.	.	16bb	.
.	.	16ccc	.
.	.	16ccc#JJ)	.
=	=	=164	=164
1D	1V	(4.ccc#	([2d 2e 2g
.	.	16.eeeLL	.
.	.	32dddJJk)	.
.	.	8dd	8d]) 8f#
.	.	4d	8r
.	.	.	8D 8F#
.	.	[8d	8r
=	=	=165	=165
*	*	*	*^
2D	2IV6	16dLL]	2E 2G	2r
.	.	(16cn	.	.
.	.	16e	.	.
.	.	16gJJ	.	.
.	.	16ccnLL	.	.
.	.	16ee	.	.
.	.	16gg	.	.
.	.	16cccnJJ)	.	.
2D	2V65	(8eee	4A	2F#
.	.	4ddd	.	.
.	.	.	4d	.
.	.	[8ccc)	.	.
*	*	*	*v	*v
=	=	=166	=166
2D	2I	(16cccLL]	8G
.	.	16bb	.
.	.	16ddd	8r
.	.	16ff#JJ	.
.	.	16aaLL	8B
.	.	16gg	.
.	.	16bb	8r
.	.	16dd#JJ)	.
2P	2IV	(16ff#LL	8c
.	.	16ee	.
.	.	16gg	8r
.	.	16bJJ	.
.	.	16ddLL	4r
.	.	16cc	.
.	.	16b	.
.	.	16aJJ)	.
=	=	=167	=167
2.D	2.I64	[4dd	[2D [2B
.	.	16ddLL]	.
.	.	16dd#J	.
.	.	24eeL	.
.	.	24cc	.
.	.	24aJJ	.
.	.	8g	8D] 8B]
.	.	8r	8r
4D	4V	8f#	8D 8A
.	.	8r	8r
=	=	=168	=168
1T	1I	(2c [2d 2f# 2a	(4G
.	.	.	4D)
.	.	8B) 8d] 8g	8GG
.	.	8r	8r
.	.	4r	4r
=	=	=169	=169
*-	*-	*-	*-
